X: 3
M: 2/4
L: 1/16
K: Dmix
(uFG) "Segno"|]\
K:D
: f2fd e2ed | cAAB cdeg | f2fd e2ed | eage edd2 |
  f2fd e2ed cAAB c3d | edcA AGEF | GEcE EDD2 "Segno"[|]:|


